X: 1
T:Gem of Ireland
M:C|
L:1/8
R:reel
B:Ryan's Mammoth Collection
N:299
Z:Contributed by Ray Davies,  ray:davies99.freeserve.co.uk
K:D
vD2(DE) FEDF | (3.A.A.A (AF) ABdA | BABc dBAF | GEFD EDB,A, |
 D2(DE) FEDF | (3.A.A.A (AF) ABdA | BABc dBAF | GBAF D2 z2 ::
vf"0"efg afdf | (3"0".e.e.e (ed) efge | f"0"efg afdf |\
 "0"edef d2(de) |
fefg afdf | (3"0".e.e.e (ed) efge | fdec B2(dB) | BdAF D2 z2 :|
